frontend/src/asset/kakao.svg

<svg width="30" height="30" viewBox="0 0 30 30" fill="none" xmlns="http://www.w3.org/2000/svg">
<g clip-path="url(#clip0_198_2)">
<path d="M30 0H0V30H30V0Z" fill="#FAE500"/>
<path d="M15.1804 7.5C10.5136 7.5 6.75 10.5108 6.75 14.166C6.75 16.5386 8.31562 18.616 10.6641 19.8023L9.86925 22.771C9.85425 22.8155 9.85192 22.8632 9.86257 22.909C9.87322 22.9547 9.8964 22.9966 9.92947 23.0299C9.9777 23.0725 10.0398 23.096 10.1041 23.0961C10.1574 23.0918 10.208 23.0708 10.2486 23.036L13.6689 20.7296C14.1738 20.7993 14.6827 20.8355 15.1924 20.838C19.8532 20.838 23.6228 17.8272 23.6228 14.166C23.6228 10.5048 19.8412 7.5 15.1804 7.5Z" fill="#392020"/>
<path d="M9.7005 13.1121H8.77912C8.66497 13.1154 8.55217 13.0861 8.454 13.0278C8.41035 13.0005 8.37292 12.9644 8.3439 12.9219C8.31487 12.8794 8.29492 12.8314 8.2854 12.7809C8.28247 12.7488 8.28247 12.7166 8.2854 12.6846C8.28247 12.6246 8.29417 12.5648 8.3193 12.5103C8.34442 12.4558 8.38237 12.4081 8.42985 12.3714C8.53485 12.2954 8.6616 12.2552 8.7912 12.2569H11.5672C11.6823 12.253 11.7958 12.2845 11.8924 12.3473C11.937 12.3734 11.9752 12.4091 12.0044 12.4519C12.0336 12.4945 12.0529 12.5431 12.061 12.5942C12.0639 12.6243 12.0639 12.6545 12.061 12.6846C12.0638 12.7454 12.0522 12.806 12.0271 12.8615C12.0019 12.9169 11.9641 12.9657 11.9164 13.0036C11.814 13.0796 11.6885 13.1179 11.5612 13.1121H10.6699V16.2795C10.6735 16.347 10.6631 16.4144 10.6393 16.4776C10.6154 16.5409 10.5787 16.5985 10.5314 16.6468C10.4861 16.693 10.4316 16.7292 10.3714 16.753C10.3113 16.7769 10.2469 16.7878 10.1822 16.7853C10.0691 16.7885 9.95842 16.7524 9.8691 16.683C9.78397 16.6152 9.7263 16.5189 9.7065 16.4119C9.7005 16.368 9.7005 16.3234 9.7065 16.2795L9.7005 13.1121Z" fill="#FEE500"/>
<path d="M12.3267 12.4919C12.3532 12.3928 12.4154 12.307 12.5013 12.251C12.5929 12.1991 12.6972 12.1741 12.8024 12.1788H13.0312C13.1428 12.1747 13.2533 12.2019 13.3504 12.2571C13.4532 12.3262 13.5263 12.4315 13.5551 12.5521L14.7594 15.9544C14.7907 16.0432 14.8168 16.1337 14.8377 16.2254C14.8398 16.2635 14.8398 16.3017 14.8377 16.3398C14.8397 16.3985 14.8289 16.4569 14.8061 16.511C14.7832 16.5651 14.7488 16.6135 14.7053 16.6529C14.663 16.6962 14.6124 16.7302 14.5565 16.753C14.5005 16.7758 14.4404 16.7869 14.3801 16.7854C14.2872 16.7946 14.1939 16.7723 14.1152 16.7221C14.0366 16.6718 13.9772 16.5966 13.9465 16.5084L13.6936 15.7678H12.1099L11.857 16.5084C11.8271 16.5983 11.7669 16.675 11.6867 16.7256C11.6066 16.7761 11.5114 16.7972 11.4174 16.7854C11.3156 16.7881 11.2158 16.7562 11.1344 16.6951C11.055 16.6319 11.0015 16.5421 10.9838 16.4422C10.9806 16.4081 10.9806 16.3738 10.9838 16.3398C10.9735 16.28 10.9735 16.219 10.9838 16.1592C10.9838 16.093 11.026 16.0207 11.0501 15.9544L12.3267 12.4919ZM12.9289 13.2808L12.3568 15.0873H13.4949L12.9289 13.2808Z" fill="#FEE500"/>
<path d="M14.9756 12.6849C14.9695 12.5497 15.0171 12.4176 15.1081 12.3175C15.1544 12.2709 15.2099 12.2344 15.2711 12.2106C15.3323 12.1867 15.3978 12.1759 15.4634 12.179C15.5762 12.1776 15.6863 12.2136 15.7765 12.2814C15.8602 12.352 15.9157 12.4503 15.9331 12.5583C15.939 12.6003 15.939 12.6429 15.9331 12.6849V15.8523H17.589C17.7038 15.8508 17.8166 15.882 17.9142 15.9425C17.9581 15.9696 17.9957 16.0056 18.0248 16.0481C18.0539 16.0906 18.0736 16.1388 18.0828 16.1895C18.0828 16.1895 18.0828 16.2497 18.0828 16.2798C18.0857 16.3398 18.074 16.3995 18.0489 16.454C18.0237 16.5085 17.9858 16.5562 17.9383 16.5929C17.8334 16.6689 17.7066 16.7091 17.577 16.7073H15.5417C15.4121 16.7157 15.2832 16.6819 15.1743 16.611C15.077 16.5382 15.0121 16.4301 14.9937 16.3099C14.9893 16.2438 14.9893 16.1773 14.9937 16.1112L14.9756 12.6849Z" fill="#FEE500"/>
<path d="M18.1912 12.6847C18.1876 12.5499 18.235 12.4188 18.3237 12.3173C18.414 12.2353 18.5297 12.1869 18.6515 12.1804C18.7732 12.1738 18.8935 12.2094 18.9922 12.2812C19.0776 12.3512 19.1353 12.4494 19.1547 12.5581C19.1577 12.6003 19.1577 12.6426 19.1547 12.6847V14.16L20.6782 12.4016C20.7369 12.3416 20.7992 12.2854 20.8649 12.233C20.9267 12.1962 20.9977 12.1774 21.0696 12.1788C21.1749 12.1782 21.2778 12.2098 21.3647 12.2692C21.4056 12.2967 21.4406 12.3322 21.4675 12.3736C21.4944 12.415 21.5127 12.4614 21.5212 12.51C21.5237 12.5219 21.5237 12.5343 21.5212 12.5462C21.5183 12.5601 21.5183 12.5744 21.5212 12.5883C21.521 12.6517 21.5044 12.7139 21.4731 12.769C21.4411 12.8272 21.4027 12.8818 21.3586 12.9315L20.359 14.0275L21.5634 15.8942V15.9544C21.6259 16.0407 21.6747 16.1362 21.7079 16.2375V16.2676C21.7149 16.3373 21.7048 16.4077 21.6786 16.4728C21.6524 16.5378 21.6108 16.5955 21.5574 16.6409C21.4569 16.7168 21.334 16.7571 21.2081 16.7554C21.1245 16.7588 21.0414 16.7401 20.9672 16.7011C20.887 16.6473 20.821 16.5751 20.7745 16.4903L19.6545 14.6839L19.1186 15.2439V16.2495C19.1222 16.3842 19.0749 16.5154 18.9861 16.6168C18.9385 16.6633 18.8819 16.6996 18.8198 16.7234C18.7576 16.7473 18.6913 16.7581 18.6248 16.7554C18.5137 16.7577 18.4052 16.7215 18.3177 16.6529C18.2326 16.5851 18.1749 16.489 18.1551 16.382C18.1492 16.3381 18.1492 16.2934 18.1551 16.2495L18.1912 12.6847Z" fill="#FEE500"/>
</g>
<defs>
<clipPath id="clip0_198_2">
<rect width="30" height="30" fill="white"/>
</clipPath>
</defs>
</svg>

<svg xmlns="http://www.w3.org/2000/svg" width="30" height="30" fill="none"><g clip-path="url(#a)"><path fill="#FAE500" d="M30 0H0v30h30z"/><path fill="#392020" d="M15.18 7.5c-4.666 0-8.43 3.01-8.43 6.666 0 2.373 1.566 4.45 3.914 5.636l-.795 2.969a.25.25 0 0 0 .06.259c.049.043.11.066.175.066a.25.25 0 0 0 .145-.06l3.42-2.306q.758.104 1.523.108c4.661 0 8.43-3.01 8.43-6.672S19.843 7.5 15.18 7.5"/><path fill="#FEE500" d="M9.7 13.112h-.92a.6.6 0 0 1-.326-.084.37.37 0 0 1-.169-.247.5.5 0 0 1 0-.096.37.37 0 0 1 .145-.314.6.6 0 0 1 .361-.114h2.776a.56.56 0 0 1 .325.09.35.35 0 0 1 .169.247.5.5 0 0 1 0 .09.39.39 0 0 1-.145.32.55.55 0 0 1-.355.108h-.891v3.167a.49.49 0 0 1-.139.368.46.46 0 0 1-.349.138.5.5 0 0 1-.313-.102.45.45 0 0 1-.162-.271.5.5 0 0 1 0-.133zM12.327 12.492a.42.42 0 0 1 .174-.241.56.56 0 0 1 .301-.072h.23a.6.6 0 0 1 .318.078c.103.07.176.175.205.295l1.204 3.402q.048.135.079.271a1 1 0 0 1 0 .115.4.4 0 0 1-.133.313.44.44 0 0 1-.325.132.416.416 0 0 1-.434-.277l-.252-.74H12.11l-.253.74a.41.41 0 0 1-.44.277.416.416 0 0 1-.434-.343.6.6 0 0 1 0-.102.5.5 0 0 1 0-.18c0-.067.043-.14.067-.206zm.602.789-.572 1.806h1.138zM14.976 12.685a.51.51 0 0 1 .132-.367.47.47 0 0 1 .355-.139.5.5 0 0 1 .314.102c.083.071.139.17.156.277a.5.5 0 0 1 0 .127v3.167h1.656a.6.6 0 0 1 .325.09.37.37 0 0 1 .169.247v.09a.37.37 0 0 1-.145.314.6.6 0 0 1-.361.114h-2.035a.6.6 0 0 1-.368-.096.46.46 0 0 1-.18-.301 2 2 0 0 1 0-.199zM18.191 12.685a.54.54 0 0 1 .133-.368.53.53 0 0 1 .668-.036c.086.07.143.168.163.277a1 1 0 0 1 0 .127v1.475l1.523-1.758q.088-.09.187-.169a.4.4 0 0 1 .205-.054c.105 0 .208.03.295.09a.37.37 0 0 1 .156.241.1.1 0 0 1 0 .036.1.1 0 0 0 0 .042.4.4 0 0 1-.048.181 1 1 0 0 1-.114.162l-1 1.097 1.204 1.866v.06q.095.13.145.284v.03a.43.43 0 0 1-.15.373.57.57 0 0 1-.35.114.5.5 0 0 1-.24-.054.6.6 0 0 1-.194-.21l-1.12-1.807-.535.56v1.006a.54.54 0 0 1-.133.367.49.49 0 0 1-.361.138.48.48 0 0 1-.307-.102.45.45 0 0 1-.163-.271.5.5 0 0 1 0-.133z"/></g><defs><clipPath id="a"><path fill="#fff" d="M0 0h30v30H0z"/></clipPath></defs></svg>
